X:1
T:Suite in C Minor for Lute (trans. to A minor)
T:3. Sarabande
T:Johann Sebastian Bach (1685-1750) BWV 997
T:by Mutopia 2013/02/17-52 Scritto con MuseScore, un software libero e gratuito: http://musescore.org/it 
C:Johann Sebastian Bach
Z:by Mutopia 2013/02/17-52
Z:Scritto con MuseScore, un software libero e gratuito: http://musescore.org/it
%%score ( 1 2 3 )
L:1/8
Q:1/4=45
M:3/4
K:C
V:1 treble-8 nm="Chitarra"
V:2 treble-8 
V:3 treble-8 
V:1
 a3/2(b/4c'/4) ba^ga | d6 | d/f/e/d/ b>a ^g/f/e/d/ | c/B/c/B/ A/E/A/B/ c/d/e/f/ | g/e/^c- c z z2 | %5
 F/^c/d/^g/ a/F/E/D/ E/d/c/g/ | a/E/^D/^C/ D/^F/A/^c/ B/^G/A/^f/ | [^DAc]2 [^GB]2 z2 | %8
 (c/d/e/)e/ (e/f/g/)g/ (g/a/_b/)b/ | (_b/g/)(g/e/) (e/c/)(c/_B/) (B/A/B/)g/ | %10
 (A/_B/c/)c/ (c/d/e/)e/ (e/f/g/)g/ | (g/e/)(e/^c/) (c/A/)(A/G/) (G/F/G/)e/ | %12
 F/E/D/E/ F/G/A/B/ c/B/A/c/ | B/A/G/A/ B/c/d/e/ f/e/d/f/ | e/g/f/a/ g/c/B/c/ f/e/d/c/ |1 [EGc]6 :|2 %16
 [CEGc]6 |: e3/2(f/4g/4) fedc | ^f6 | g3/2a/4b/4 a/g/^f/e/ d/B/c/a/ | c/B/c/d/ B2 [gb]2 | %21
 [gb][^fa][fa][eg][eg][^df] | ^fg/a/ (c2 B2) | B/^c/^d/e/ ^f/a/g/f/ g/e/f/d/ | e2 g4 | %25
 (g/f/e/)e/ (e/d/^c/)c/ (c/B/A/)A/ | (A/^c/)(c/e/) (e/g/)(g/_b/) (a/g/)(f/e/) | %27
 (f/e/d/)d/ d/c/B/B/ (B/A/G/)G/ | (G/B/)(B/d/) (d/f/)(f/a/) (g/f/)(e/d/) | %29
 e/(f/e/d/ c/B/A/^G/ A/)c/e/G/ | F/d/E/c/ D/B/C/A/ B,/^G/d/f/ | e/^g/a/f/ ^d/e/^G/A/ =d/c/B/A/ |1 %32
 [EGc]6 :|3 [A,CEA]6 |] %34
V:2
 C2 A,2 A,2 | A,3/2(A,/4C/4) B,A,^G,A, | G,2 A,2 A,2 | A,2 z2 z2 | A,2 A,2 A,2 | A,2 A,2 A,2 | %6
 A,2 A,2 A,2 | E,2 E=DCB, | A, z G, z F, z | E,2 z GCE | F z E z D z | ^C2 z EA,C | D2 z DEF | %13
 G2 z G,A,B, | CB,E,F,G,G, |1 CC(CB,)(B,A,) :|2 x6 |: C2 C2 C2 | C3/2D/4E/4 DCB,A, | B,2 C2 D2 | %20
 G,3 B,EG | C2 z2 z A | AG ^FE DE/F/ | G,2 A,2 B,2 | E,EEDD^C | ^C2 z A,A,C | GE^CECA, | %27
 D2 z DDB, | FDB,DB,G, | C2 z E CA, | DEDCB,B, | CB,CF,E,E, |1 CC(CB,)(B,A,) :|3 x6 |] %34
V:3
 [ce]2 dcBc | [FB]6 | [FB]2 [^Gd]2 z2 | x6 | z G- G/_B/A/G/ A/G/F/E/ | x6 | x6 | x6 | x6 | x6 | %10
 x6 | x6 | x6 | x6 | x6 |1 x6 :|2 x6 |: [Gc]2 AGFE | [DA]6 | [Gd]2 e2 z A | [DA]2 G2 z2 | z4 z z | %22
 de A4 | x6 | [GB]2 z _BBA | [EA]2 z2 z2 | x6 | x6 | x6 | x6 | x6 | x6 |1 x6 :|3 x6 |] %34

